svg/color/dfp2.svg

<?xml version="1.0" encoding="UTF-8" ?>
<!DOCTYPE svg PUBLIC "-//W3C//DTD SVG 1.1//EN" "http://www.w3.org/Graphics/SVG/1.1/DTD/svg11.dtd">
<svg width="250pt" height="250pt" viewBox="0 0 250 250" version="1.1" xmlns="http://www.w3.org/2000/svg">
<g id="#ffffffff">
<path fill="#ffffff" opacity="1.00" d=" M 0.00 0.00 L 119.46 0.00 C 91.46 1.40 63.94 12.22 42.88 30.80 C 17.04 53.04 1.27 86.28 0.00 120.31 L 0.00 0.00 Z" />
<path fill="#ffffff" opacity="1.00" d=" M 129.70 0.00 L 250.00 0.00 L 250.00 120.47 C 248.78 86.38 233.00 53.07 207.12 30.80 C 185.85 12.06 158.00 1.14 129.70 0.00 Z" />
<path fill="#ffffff" opacity="1.00" d=" M 135.71 35.93 C 136.76 35.28 138.07 33.11 139.39 34.53 C 145.42 39.99 151.41 45.50 157.40 51.00 C 157.41 104.66 157.51 158.32 157.35 211.98 C 150.09 212.68 143.08 215.71 135.76 215.29 C 135.71 155.50 135.80 95.71 135.71 35.93 Z" />
<path fill="#ffffff" opacity="1.00" d=" M 92.50 76.65 C 99.60 69.65 107.07 63.04 114.23 56.11 C 114.27 107.61 114.25 159.11 114.24 210.61 C 107.02 209.16 99.82 207.58 92.59 206.16 C 92.50 162.99 92.69 119.82 92.50 76.65 Z" />
<path fill="#ffffff" opacity="1.00" d=" M 179.17 70.99 C 186.36 77.44 193.40 84.07 200.58 90.54 C 200.62 128.10 200.64 165.67 200.58 203.24 C 193.42 204.59 186.30 206.09 179.15 207.47 C 179.08 161.97 179.10 116.49 179.17 70.99 Z" />
<path fill="#ffffff" opacity="1.00" d=" M 49.44 116.84 C 56.66 110.31 63.64 103.54 70.72 96.86 C 71.11 131.75 70.73 166.67 70.88 201.57 C 63.75 200.19 56.66 198.58 49.52 197.22 C 49.25 170.43 49.41 143.63 49.44 116.84 Z" />
<path fill="#ffffff" opacity="1.00" d=" M 0.00 129.63 C 1.25 163.90 17.24 197.38 43.38 219.63 C 64.34 237.94 91.61 248.57 119.36 250.00 L 0.00 250.00 L 0.00 129.63 Z" />
<path fill="#ffffff" opacity="1.00" d=" M 219.19 207.14 C 237.94 185.86 248.87 158.00 250.00 129.69 L 250.00 250.00 L 129.66 250.00 C 163.69 248.74 196.94 232.97 219.19 207.14 Z" />
</g>
<g id="#5d0fc0ff">
<path fill="#5d0fc0" opacity="1.00" d=" M 119.46 0.00 L 129.70 0.00 C 158.00 1.14 185.85 12.06 207.12 30.80 C 233.00 53.07 248.78 86.38 250.00 120.47 L 250.00 129.69 C 248.87 158.00 237.94 185.86 219.19 207.14 C 196.94 232.97 163.69 248.74 129.66 250.00 L 119.36 250.00 C 91.61 248.57 64.34 237.94 43.38 219.63 C 17.24 197.38 1.25 163.90 0.00 129.63 L 0.00 120.31 C 1.27 86.28 17.04 53.04 42.88 30.80 C 63.94 12.22 91.46 1.40 119.46 0.00 M 135.71 35.93 C 135.80 95.71 135.71 155.50 135.76 215.29 C 143.08 215.71 150.09 212.68 157.35 211.98 C 157.51 158.32 157.41 104.66 157.40 51.00 C 151.41 45.50 145.42 39.99 139.39 34.53 C 138.07 33.11 136.76 35.28 135.71 35.93 M 92.50 76.65 C 92.69 119.82 92.50 162.99 92.59 206.16 C 99.82 207.58 107.02 209.16 114.24 210.61 C 114.25 159.11 114.27 107.61 114.23 56.11 C 107.07 63.04 99.60 69.65 92.50 76.65 M 179.17 70.99 C 179.10 116.49 179.08 161.97 179.15 207.47 C 186.30 206.09 193.42 204.59 200.58 203.24 C 200.64 165.67 200.62 128.10 200.58 90.54 C 193.40 84.07 186.36 77.44 179.17 70.99 M 49.44 116.84 C 49.41 143.63 49.25 170.43 49.52 197.22 C 56.66 198.58 63.75 200.19 70.88 201.57 C 70.73 166.67 71.11 131.75 70.72 96.86 C 63.64 103.54 56.66 110.31 49.44 116.84 Z" />
</g>
</svg>

<?xml version="1.0" encoding="utf-8"?>
<!-- Generator: Adobe Illustrator 26.0.3, SVG Export Plug-In . SVG Version: 6.00 Build 0)  -->
<svg version="1.1" id="Layer_1" xmlns="http://www.w3.org/2000/svg" xmlns:xlink="http://www.w3.org/1999/xlink" x="0px" y="0px"
	 viewBox="0 0 250 250" style="enable-background:new 0 0 250 250;" xml:space="preserve">
<style type="text/css">
	.st0{fill:#FFFFFF;}
	.st1{fill:#5D0FC0;}
</style>
<g id="_x23_ffffffff">
	<path class="st0" d="M135.7,35.9c1-0.7,2.4-2.8,3.7-1.4c6,5.5,12,11,18,16.5c0,53.7,0.1,107.3,0,161c-7.3,0.7-14.3,3.7-21.6,3.3
		C135.7,155.5,135.8,95.7,135.7,35.9z"/>
	<path class="st0" d="M92.5,76.7c7.1-7,14.6-13.6,21.7-20.5c0,51.5,0,103,0,154.5c-7.2-1.4-14.4-3-21.7-4.4
		C92.5,163,92.7,119.8,92.5,76.7z"/>
	<path class="st0" d="M179.2,71c7.2,6.5,14.2,13.1,21.4,19.6c0,37.6,0.1,75.1,0,112.7c-7.2,1.3-14.3,2.8-21.4,4.2
		C179.1,162,179.1,116.5,179.2,71z"/>
	<path class="st0" d="M49.4,116.8c7.2-6.5,14.2-13.3,21.3-20c0.4,34.9,0,69.8,0.2,104.7c-7.1-1.4-14.2-3-21.4-4.4
		C49.2,170.4,49.4,143.6,49.4,116.8z"/>
	<path class="st0" d="M0,129.6c1.2,34.3,17.2,67.8,43.4,90c21,18.3,48.2,28.9,76,30.4H0"/>
</g>
<g id="_x23_5d0fc0ff">
	<path class="st1" d="M119.5,0h10.2c28.3,1.1,56.2,12.1,77.4,30.8c25.9,22.3,41.7,55.6,42.9,89.7v9.2c-1.1,28.3-12.1,56.2-30.8,77.4
		c-22.2,25.8-55.5,41.6-89.5,42.9h-10.3c-27.8-1.4-55-12.1-76-30.4c-26.1-22.2-42.1-55.7-43.4-90v-9.3c1.3-34,17-67.3,42.9-89.5
		C63.9,12.2,91.5,1.4,119.5,0 M135.7,35.9c0.1,59.8,0,119.6,0,179.4c7.3,0.4,14.3-2.6,21.6-3.3c0.2-53.7,0.1-107.3,0-161
		c-6-5.5-12-11-18-16.5C138.1,33.1,136.8,35.3,135.7,35.9 M92.5,76.7c0.2,43.2,0,86.3,0.1,129.5c7.2,1.4,14.4,3,21.7,4.4
		c0-51.5,0-103,0-154.5C107.1,63,99.6,69.7,92.5,76.7 M179.2,71c-0.1,45.5-0.1,91,0,136.5c7.2-1.4,14.3-2.9,21.4-4.2
		c0.1-37.6,0-75.1,0-112.7C193.4,84.1,186.4,77.4,179.2,71 M49.4,116.8c0,26.8-0.2,53.6,0.1,80.4c7.1,1.4,14.2,3,21.4,4.4
		c-0.1-34.9,0.2-69.8-0.2-104.7C63.6,103.5,56.7,110.3,49.4,116.8z"/>
</g>
</svg>
